icons/smartwatc-square.svg

<svg width="24" height="24" viewBox="0 0 24 24" fill="none" xmlns="http://www.w3.org/2000/svg">
<path fill-rule="evenodd" clip-rule="evenodd" d="M9.25005 5.25C7.06426 5.25 5.30005 7.01421 5.30005 9.2V14.7C5.30005 16.8858 7.06426 18.65 9.25005 18.65H14.75C16.9358 18.65 18.7 16.8858 18.7 14.7V9.2C18.7 7.01421 16.9358 5.25 14.75 5.25H9.25005ZM3.80005 9.2C3.80005 6.18579 6.23584 3.75 9.25005 3.75H14.75C17.7643 3.75 20.2 6.18579 20.2 9.2V14.7C20.2 17.7142 17.7643 20.15 14.75 20.15H9.25005C6.23584 20.15 3.80005 17.7142 3.80005 14.7V9.2Z" fill="black"/>
<path fill-rule="evenodd" clip-rule="evenodd" d="M8.97439 2.92327C8.92928 2.96536 8.90015 3.02061 8.90015 3.09998V4.04519C8.90634 4.05609 8.91465 4.07054 8.92635 4.09081C8.95045 4.13258 8.98517 4.19298 9.02097 4.26457L7.67933 4.93539C7.66512 4.90697 7.64984 4.87987 7.62707 4.84039C7.62528 4.8373 7.62336 4.83398 7.62132 4.83044C7.60139 4.79599 7.56997 4.74168 7.54183 4.68539C7.46752 4.53678 7.40015 4.34632 7.40015 4.09998V3.09998C7.40015 2.03786 8.28551 1.34998 9.15015 1.34998H14.7501C15.8123 1.34998 16.5001 2.23534 16.5001 3.09998V4.09998C16.5001 4.10551 16.5002 4.11129 16.5002 4.11728C16.5003 4.20348 16.5005 4.33511 16.4774 4.47328C16.4497 4.63964 16.3953 4.78663 16.321 4.93539L14.9793 4.26457C14.9906 4.24197 14.996 4.22898 14.9981 4.2232C14.9984 4.21976 14.9988 4.21409 14.9991 4.20553C15 4.18211 15.0001 4.15366 15.0001 4.09998V3.09998C15.0001 3.04533 14.976 2.97682 14.9269 2.92421C14.8848 2.87911 14.8295 2.84998 14.7501 2.84998H9.15015C9.0955 2.84998 9.02699 2.87417 8.97439 2.92327Z" fill="black"/>
<path fill-rule="evenodd" clip-rule="evenodd" d="M15.0916 19.9C15.1002 19.91 15.1095 19.9201 15.1197 19.9303L16.1804 18.8696C16.4034 19.0927 16.4599 19.3656 16.48 19.5064C16.5003 19.6483 16.5001 19.7958 16.5 19.8844C16.5 19.8898 16.5 19.895 16.5 19.9V20.9C16.5 21.9621 15.6147 22.65 14.75 22.65H9.25004C8.18792 22.65 7.50004 21.7646 7.50004 20.9V19.9C7.50004 19.8944 7.50003 19.8886 7.50002 19.8827C7.4999 19.7965 7.49971 19.6648 7.52274 19.5267C7.55047 19.3603 7.60484 19.2133 7.67921 19.0645L9.02086 19.7354C9.00956 19.758 9.00423 19.7709 9.00203 19.7767C9.00175 19.7802 9.00137 19.7858 9.00104 19.7944C9.00014 19.8178 9.00004 19.8463 9.00004 19.9V20.9C9.00004 20.9546 9.02422 21.0231 9.07333 21.0757C9.11542 21.1208 9.17067 21.15 9.25004 21.15H14.75C14.8047 21.15 14.8732 21.1258 14.9258 21.0767C14.9709 21.0346 15 20.9793 15 20.9V19.9C15 19.8477 15 19.8099 14.9989 19.7757C14.9978 19.7419 14.996 19.7249 14.9951 19.7185C14.9951 19.7184 14.9951 19.7186 14.9951 19.7185C14.9959 19.7232 14.9995 19.7402 15.0094 19.7654C15.0214 19.796 15.0457 19.8463 15.0916 19.9Z" fill="black"/>
</svg>

<svg xmlns="http://www.w3.org/2000/svg" fill="none" viewBox="0 0 24 24">
  <path fill="#000" fill-rule="evenodd" d="M9.25 5.25A3.945 3.945 0 0 0 5.3 9.2v5.5a3.945 3.945 0 0 0 3.95 3.95h5.5a3.945 3.945 0 0 0 3.95-3.95V9.2a3.945 3.945 0 0 0-3.95-3.95h-5.5ZM3.8 9.2a5.445 5.445 0 0 1 5.45-5.45h5.5A5.445 5.445 0 0 1 20.2 9.2v5.5a5.445 5.445 0 0 1-5.45 5.45h-5.5A5.445 5.445 0 0 1 3.8 14.7V9.2Z" clip-rule="evenodd"/>
  <path fill="#000" fill-rule="evenodd" d="M8.974 2.923A.228.228 0 0 0 8.9 3.1v.945l.026.046c.024.042.06.102.095.174l-1.342.67a1.79 1.79 0 0 0-.058-.105 2.796 2.796 0 0 1-.08-.145 1.276 1.276 0 0 1-.14-.585v-1c0-1.062.885-1.75 1.75-1.75h5.6c1.061 0 1.75.885 1.75 1.75v1.017c0 .086 0 .218-.024.356a1.603 1.603 0 0 1-.156.462l-1.342-.67a.438.438 0 0 0 .02-.042v-.017L15 4.1v-1a.27.27 0 0 0-.073-.176.228.228 0 0 0-.177-.074h-5.6a.27.27 0 0 0-.176.073ZM15.092 19.9l.028.03 1.06-1.06c.223.223.28.496.3.636.02.142.02.29.02.378V20.9c0 1.062-.885 1.75-1.75 1.75h-5.5c-1.062 0-1.75-.885-1.75-1.75v-1.017c0-.086 0-.218.023-.356.027-.167.082-.314.156-.463l1.342.671a.472.472 0 0 0-.019.042l-.001.017L9 19.9v1a.27.27 0 0 0 .073.176.228.228 0 0 0 .177.074h5.5a.27.27 0 0 0 .176-.073A.228.228 0 0 0 15 20.9v-1l-.001-.124a.591.591 0 0 0-.004-.058.479.479 0 0 0 .096.181Z" clip-rule="evenodd"/>
</svg>
